X: 657
T: Xiaojie suanming
L: 1/16
M: 2/4
K: Bb
b2 d'2 c'2 d'2 [I:setbarnb 1]| 
b2 g2f4 | 
f2 z2 d'2 f'2 | 
c' d' b gf4 | 
g f g b c' d' b z | 
g f g bf4 | 
b g f b b2 d2 | 
f2> d2 f g d c | 
B8 |]

@@@ Tune index: 9531
